X:415
T: AUS DEM HIMMEL DROBEN FAELLT EIN GOLDNER SCHNEE
N: B0488
O: Europa, Mitteleuropa, Deutschland, Hochwald, Hellertshausen
R: Liebes - Lied, Leid, Klage
M: 2/4
L: 1/16
K: D
 | D2E2F2D2 | B4B4
A2F2G2F2 | E4z4
A2A2c2c2 | G4z4
G3GB2B2 | A4z4
A2F2d2d2 | A6A2
F2F2E2D2 | B4z4
e3dc2B2 | A2A2G2C2 | D4z4
D2E2F2D2 | B8
A2F2G2F2 | E8 | z2
A2A2A2 | e8
G2G2F2G2 | A4z4 | z2
A2F2d2 | F2F2E2D2 | B8 | z2
e2d2B2 | A4A2A2 | G4C4 | D8
